packages/core/src/svgs/tokens/mono/USN.svg

<svg width="24" height="24" viewBox="0 0 24 24" fill="none" xmlns="http://www.w3.org/2000/svg">
<mask id="mask0_364_19199" style="mask-type:luminance" maskUnits="userSpaceOnUse" x="3" y="3" width="18" height="18">
<path d="M20.3332 3.6665H3.6665V20.3332H20.3332V3.6665Z" fill="white"/>
</mask>
<g mask="url(#mask0_364_19199)">
<path fill-rule="evenodd" clip-rule="evenodd" d="M11.9998 3.6665C16.6022 3.6665 20.3332 7.39746 20.3332 11.9998C20.3332 16.6022 16.6022 20.3332 11.9998 20.3332C7.39746 20.3332 3.6665 16.6022 3.6665 11.9998C3.6665 7.39746 7.39746 3.6665 11.9998 3.6665ZM9.36532 8.08615C9.66422 7.99335 9.9912 8.09668 10.1748 8.34199L13.6884 13.0375V8.05251H15.1358V10.1423H16.8244V11.5354H15.1358V12.4643H16.8244V13.8574H15.1358V15.1964C15.1358 15.4988 14.9333 15.7666 14.6343 15.8593C14.3354 15.9522 14.0085 15.8488 13.8249 15.6036L10.3112 10.9081V15.9472H8.86387V13.8574H7.17528V12.4643H8.86387V11.5354H7.17528V10.1423H8.86387V8.7491C8.86387 8.44681 9.06646 8.179 9.36532 8.08615Z" fill="white"/>
</g>
</svg>

<svg xmlns="http://www.w3.org/2000/svg" width="24" height="24" fill="none" viewBox="0 0 24 24">
    <mask id="USN__a" width="18" height="18" x="3" y="3" maskUnits="userSpaceOnUse" style="mask-type:luminance">
        <path fill="#fff" d="M20.333 3.667H3.667v16.666h16.666z"/>
    </mask>
    <g mask="url(#USN__a)">
        <path fill="#fff" fill-rule="evenodd" d="M12 3.667a8.333 8.333 0 1 1 0 16.666 8.333 8.333 0 0 1 0-16.666m-2.635 4.42a.74.74 0 0 1 .81.255l3.513 4.695V8.054h1.448v2.09h1.688v1.392h-1.688v.93h1.688v1.392h-1.688v1.34a.7.7 0 0 1-.502.662.74.74 0 0 1-.81-.255l-3.513-4.696v5.04H8.864v-2.09H7.175v-1.394h1.689v-.929H7.175v-1.393h1.689V8.75a.7.7 0 0 1 .501-.663" clip-rule="evenodd"/>
    </g>
</svg>
